Origami/22x22/apps/babe.svg

<svg width="22" height="22" version="1" xmlns="http://www.w3.org/2000/svg">
 <path d="m7 4.5c-0.851727 0.001629-1.6626229 0.365183-2.2304688 1h-0.7695312c-1.6567856 1.657e-4 -2.9998343 1.3432144-3 3v5c1.657e-4 1.656786 1.3432144 2.999834 3 3h0.7675781c0.5683002 0.635323 1.3800139 0.998925 2.2324219 1h0.1757812c0.4233423 1.197128 1.5544432 1.998129 2.8242188 2h2c1.270493-1e-3 2.40259-0.802197 2.826172-2h0.173828c0.851727-0.0016 1.662623-0.365183 2.230469-1h0.769531c1.656786-1.66e-4 2.999834-1.343214 3-3v-5c-1.66e-4 -1.6567856-1.343214-2.9998343-3-3h-0.767578c-0.5683-0.6353231-1.380014-0.9989254-2.232422-1h-2c-0.738407 0.0010305-1.450502 0.2743247-2 0.7675781-0.549498-0.4932534-1.261593-0.7665476-2-0.7675781z" style="opacity:.2"/>
 <path d="m7 4c-0.851727 0.001629-1.6626229 0.365183-2.2304688 1h-0.7695312c-1.6567856 1.657e-4 -2.9998343 1.3432144-3 3v5c1.657e-4 1.656786 1.3432144 2.999834 3 3h0.7675781c0.5683002 0.635323 1.3800139 0.998925 2.2324219 1h0.1757812c0.4233423 1.197128 1.5544432 1.998129 2.8242188 2h2c1.270493-1e-3 2.40259-0.802197 2.826172-2h0.173828c0.851727-0.0016 1.662623-0.365183 2.230469-1h0.769531c1.656786-1.66e-4 2.999834-1.343214 3-3v-5c-1.66e-4 -1.6567856-1.343214-2.9998343-3-3h-0.767578c-0.5683-0.6353231-1.380014-0.9989254-2.232422-1h-2c-0.738407 0.0010305-1.450502 0.2743247-2 0.7675781-0.549498-0.4932534-1.261593-0.7665476-2-0.7675781z" style="fill:#f85b79"/>
 <g transform="translate(-1 -.5)" style="opacity:.2">
  <path d="m5 9v1h2v-1h-2z"/>
  <path d="m5 11v1h2v-1h-2z"/>
  <path d="m5 13v1h2v-1h-2z"/>
  <path d="m8 8v1h2v-1h-2z"/>
  <path d="m8 10v1h2v-1h-2z"/>
  <path d="m8 12v1h2v-1h-2z"/>
  <path d="m8 14v1h2v-1h-2z"/>
  <path d="m11 10v1h2v-1h-2z"/>
  <path d="m11 12v1h2v-1h-2z"/>
  <path d="m11 14v1h2v-1h-2z"/>
  <path d="m11 16v1h2v-1h-2z"/>
  <path d="m19 9v1h-2v-1h2z"/>
  <path d="m19 11v1h-2v-1h2z"/>
  <path d="m19 13v1h-2v-1h2z"/>
  <path d="m16 8v1h-2v-1h2z"/>
  <path d="m16 10v1h-2v-1h2z"/>
  <path d="m16 12v1h-2v-1h2z"/>
  <path d="m16 14v1h-2v-1h2z"/>
 </g>
 <path d="m7 7v1h2v-1zm6 0v1h2v-1zm-9 1v1h2v-1zm12 0v1h2v-1zm-9 1v1h2v-1zm3 0v1h2v-1zm3 0v1h2v-1zm-9 1v1h2v-1zm12 0v1h2v-1zm-9 1v1h2v-1zm3 0v1h2v-1zm3 0v1h2v-1zm-9 1v1h2v-1zm12 0v1h2v-1zm-9 1v1h2v-1zm3 0v1h2v-1zm3 0v1h2v-1zm-3 2v1h2v-1z" style="fill:#ffffff"/>
 <path d="m7 4c-0.851727 0.001629-1.6626228 0.365183-2.2304688 1h-0.7695312c-1.6567856 1.657e-4 -2.9998343 1.3432144-3 3v0.5c1.657e-4 -1.6567856 1.3432144-2.9998343 3-3h0.7695312c0.567846-0.634817 1.3787418-0.998371 2.2304688-1h2c0.738407 0.00103 1.450502 0.2743247 2 0.7675781 0.549498-0.4932534 1.261593-0.7665476 2-0.7675781h2c0.852408 0.00107 1.664122 0.3646769 2.232422 1h0.767578c1.656786 1.657e-4 2.999834 1.3432144 3 3v-0.5c-1.66e-4 -1.6567856-1.343214-2.9998343-3-3h-0.767578c-0.5683-0.6353231-1.380014-0.9989254-2.232422-1h-2c-0.738407 0.0010305-1.450502 0.2743247-2 0.7675781-0.549498-0.4932534-1.261593-0.7665476-2-0.7675781z" style="fill:#ffffff;opacity:.2"/>
</svg>

<svg xmlns="http://www.w3.org/2000/svg" width="22" height="22" version="1">
 <path style="opacity:0.2" d="M 7,4.5 C 6.148273,4.501629 5.3373771,4.865183 4.7695312,5.5 H 4 c -1.6567856,1.657e-4 -2.9998343,1.3432144 -3,3 v 5 c 1.657e-4,1.656786 1.3432144,2.999834 3,3 H 4.7675781 C 5.3358783,17.135323 6.147592,17.498925 7,17.5 H 7.1757812 C 7.5991235,18.697128 8.7302244,19.498129 10,19.5 h 2 c 1.270493,-0.001 2.40259,-0.802197 2.826172,-2 H 15 c 0.851727,-0.0016 1.662623,-0.365183 2.230469,-1 H 18 c 1.656786,-1.66e-4 2.999834,-1.343214 3,-3 v -5 C 20.999834,6.8432144 19.656786,5.5001657 18,5.5 H 17.232422 C 16.664122,4.8646769 15.852408,4.5010746 15,4.5 H 13 C 12.261593,4.5010305 11.549498,4.7743247 11,5.2675781 10.450502,4.7743247 9.738407,4.5010305 9,4.5 Z"/>
 <path style="fill:#f85b79" d="M 7,4 C 6.148273,4.001629 5.3373771,4.365183 4.7695312,5 H 4 C 2.3432144,5.0001657 1.0001657,6.3432144 1,8 v 5 c 1.657e-4,1.656786 1.3432144,2.999834 3,3 H 4.7675781 C 5.3358783,16.635323 6.147592,16.998925 7,17 H 7.1757812 C 7.5991235,18.197128 8.7302244,18.998129 10,19 h 2 c 1.270493,-0.001 2.40259,-0.802197 2.826172,-2 H 15 c 0.851727,-0.0016 1.662623,-0.365183 2.230469,-1 H 18 c 1.656786,-1.66e-4 2.999834,-1.343214 3,-3 V 8 C 20.999834,6.3432144 19.656786,5.0001657 18,5 H 17.232422 C 16.664122,4.3646769 15.852408,4.0010746 15,4 H 13 C 12.261593,4.0010305 11.549498,4.2743247 11,4.7675781 10.450502,4.2743247 9.738407,4.0010305 9,4 Z"/>
 <g style="opacity:0.2" transform="translate(-1,-0.5)">
  <path d="m 5,9 c 0,0.3333373 0,0.6666627 0,1 0.666667,0 1.3333333,0 2,0 C 7,9.6666627 7,9.3333373 7,9 6.3333333,9 5.666667,9 5,9 Z"/>
  <path d="m 5,11 c 0,0.333337 0,0.666663 0,1 0.666667,0 1.3333333,0 2,0 0,-0.333337 0,-0.666663 0,-1 -0.6666667,0 -1.333333,0 -2,0 z"/>
  <path d="m 5,13 c 0,0.333337 0,0.666663 0,1 0.666667,0 1.3333333,0 2,0 0,-0.333337 0,-0.666663 0,-1 -0.6666667,0 -1.333333,0 -2,0 z"/>
  <path d="M 8,8 C 8,8.3333373 8,8.6666627 8,9 8.666667,9 9.3333335,9 10,9 10,8.6666627 10,8.3333373 10,8 9.3333335,8 8.666667,8 8,8 Z"/>
  <path d="m 8,10 c 0,0.333337 0,0.666663 0,1 0.666667,0 1.3333335,0 2,0 0,-0.333337 0,-0.666663 0,-1 -0.6666665,0 -1.333333,0 -2,0 z"/>
  <path d="m 8,12 c 0,0.333337 0,0.666663 0,1 0.666667,0 1.3333335,0 2,0 0,-0.333337 0,-0.666663 0,-1 -0.6666665,0 -1.333333,0 -2,0 z"/>
  <path d="m 8,14 c 0,0.333337 0,0.666663 0,1 0.666667,0 1.3333335,0 2,0 0,-0.333337 0,-0.666663 0,-1 -0.6666665,0 -1.333333,0 -2,0 z"/>
  <path d="m 11,10 c 0,0.333337 0,0.666663 0,1 0.666667,0 1.333334,0 2,0 0,-0.333337 0,-0.666663 0,-1 -0.666666,0 -1.333333,0 -2,0 z"/>
  <path d="m 11,12 c 0,0.333337 0,0.666663 0,1 0.666667,0 1.333334,0 2,0 0,-0.333337 0,-0.666663 0,-1 -0.666666,0 -1.333333,0 -2,0 z"/>
  <path d="m 11,14 c 0,0.333337 0,0.666663 0,1 0.666667,0 1.333334,0 2,0 0,-0.333337 0,-0.666663 0,-1 -0.666666,0 -1.333333,0 -2,0 z"/>
  <path d="m 11,16 c 0,0.333337 0,0.666663 0,1 0.666667,0 1.333334,0 2,0 0,-0.333337 0,-0.666663 0,-1 -0.666666,0 -1.333333,0 -2,0 z"/>
  <path d="m 19,9 c 0,0.3333373 0,0.6666627 0,1 -0.666667,0 -1.333333,0 -2,0 0,-0.3333373 0,-0.6666627 0,-1 0.666667,0 1.333333,0 2,0 z"/>
  <path d="m 19,11 c 0,0.333337 0,0.666663 0,1 -0.666667,0 -1.333333,0 -2,0 0,-0.333337 0,-0.666663 0,-1 0.666667,0 1.333333,0 2,0 z"/>
  <path d="m 19,13 c 0,0.333337 0,0.666663 0,1 -0.666667,0 -1.333333,0 -2,0 0,-0.333337 0,-0.666663 0,-1 0.666667,0 1.333333,0 2,0 z"/>
  <path d="m 16,8 c 0,0.3333373 0,0.6666627 0,1 -0.666667,0 -1.333333,0 -2,0 0,-0.3333373 0,-0.6666627 0,-1 0.666667,0 1.333333,0 2,0 z"/>
  <path d="m 16,10 c 0,0.333337 0,0.666663 0,1 -0.666667,0 -1.333333,0 -2,0 0,-0.333337 0,-0.666663 0,-1 0.666667,0 1.333333,0 2,0 z"/>
  <path d="m 16,12 c 0,0.333337 0,0.666663 0,1 -0.666667,0 -1.333333,0 -2,0 0,-0.333337 0,-0.666663 0,-1 0.666667,0 1.333333,0 2,0 z"/>
  <path d="m 16,14 c 0,0.333337 0,0.666663 0,1 -0.666667,0 -1.333333,0 -2,0 0,-0.333337 0,-0.666663 0,-1 0.666667,0 1.333333,0 2,0 z"/>
 </g>
 <path style="fill:#ffffff" d="M 7,7 V 8 H 9 V 7 Z m 6,0 v 1 h 2 V 7 Z M 4,8 V 9 H 6 V 8 Z m 12,0 v 1 h 2 V 8 Z M 7,9 v 1 H 9 V 9 Z m 3,0 v 1 h 2 V 9 Z m 3,0 v 1 h 2 V 9 Z m -9,1 v 1 h 2 v -1 z m 12,0 v 1 h 2 v -1 z m -9,1 v 1 h 2 v -1 z m 3,0 v 1 h 2 v -1 z m 3,0 v 1 h 2 v -1 z m -9,1 v 1 h 2 v -1 z m 12,0 v 1 h 2 v -1 z m -9,1 v 1 h 2 v -1 z m 3,0 v 1 h 2 v -1 z m 3,0 v 1 h 2 v -1 z m -3,2 v 1 h 2 v -1 z"/>
 <path style="opacity:0.2;fill:#ffffff" d="M 7,4 C 6.148273,4.001629 5.3373772,4.365183 4.7695312,5 H 4 C 2.3432144,5.0001657 1.0001657,6.3432144 1,8 V 8.5 C 1.0001657,6.8432144 2.3432144,5.5001657 4,5.5 H 4.7695312 C 5.3373772,4.865183 6.148273,4.501629 7,4.5 H 9 C 9.738407,4.50103 10.450502,4.7743247 11,5.2675781 11.549498,4.7743247 12.261593,4.5010305 13,4.5 h 2 c 0.852408,0.00107 1.664122,0.3646769 2.232422,1 H 18 c 1.656786,1.657e-4 2.999834,1.3432144 3,3 V 8 C 20.999834,6.3432144 19.656786,5.0001657 18,5 H 17.232422 C 16.664122,4.3646769 15.852408,4.0010746 15,4 H 13 C 12.261593,4.0010305 11.549498,4.2743247 11,4.7675781 10.450502,4.2743247 9.738407,4.0010305 9,4 Z"/>
</svg>
